X: 1193
T: Kalbimin Derdiyle
C: Feridun Darbaz
O: Turkey
F: http://compmusic.upf.edu/node/140
N: buselik--sarki--agiraksak--kalbimin_derdiyle--feridun_darbaz
N: makam= buselik
N: form= sarki
N: usul= agiraksak = 9/4
M: 9/4
L: 1/16
K: C    
Q: 1/4=72
%%MIDI tuningsystem comma53
z8 z2G4c2 e8 f4 e4 d2e2  | dccB c6c4cB B3A cBA^G A4 ABcd e4  | 
w:   |   | 
z2a2 g2f2 e3d edcB c4 d4 e4 d2e4d2  | \
w:   | 
z2c'2 b2a2 g3f gffe e8 e2fg fed2 c2d2  | 
w:   | 
e3f ede2 z2d4a2 g2f2 e2d2 c2d2 e2f2 g2a2  | \
w:   | 
g2f2 e2d2 c2d4c2 d2e4ed dccB c3d cBc2  | 
w:   | 
z2d4f2 edcB A2B2 G8 A3B c2d2 e4  | \
w:   | 
z2c2 B2d2 dc2d BAB2 A^GG8e2 fgfe dcd4e3fed e2z2 d4 a2g2 f2e2 d2c2 d2e2 f2g2  | 
w:   | 
a2g2 f2e2 d2c2 d4 c2d2 e4 eddc cBc3dcB  | \
w:   | 
c2z2 d4 f2ed cBA2 B2G8A3Bc2 d2e4z2 c2B2 d2dc2dBA B2A^G A8 c2_7/8d2 c2_1/4B2  | 
w:   | 
A2_1/4B2 c3_7/8d cBc2 z2A4B2 c8 d3c B4  | \
w:   | 
c2_7/8d2 d2cd c2_1/4B2 z2B4B2 B3A cBA^G A4 A=Bc=d  | 
w:   | 
e4 z2a2 g2f2 e3d edcB c4 d4 e4 d2e4d2 z2c'2 b2a2 g3f gffe e8 e2fg fed2  | 
w:   | 
c2d2 e3f ede2 z2d4a2 g2f2 e2d2 c2d2 e2f2  | \
w:   | 
g2a2 g2f2 e2d2 c2d4c2 d2e4ed dccB c3d  | 
w:   | 
cBc2 z2d4f2 edcB A2B2 G8 A3B c2d2  | \
w:   | 
e4 z2c2 B2d2 dc2d BAB2 A^GG8e2 fgfe  | 
w:   | 
dcd4e3fed e2z2 d4 a2g2 f2e2 d2c2 d2e2  | \
w:   | 
f2g2 a2g2 f2e2 d2c2 d4 c2d2 e4 eddc cBc3dcB c2z2 d4 f2ed cBA2 B2G8A3Bc2  | 
w:   | 
d2e4z2 c2B2 d2dc2dBA B2A^G A8 c2_7/8d2  | \
w:   | 
c2_1/4B2 A2B2 c3_7/8d cBc2 z2A4B2 c8 d3c  | 
w:   | 
_1/4B4 c2_7/8d2 d2cd c2B2 z2B4B2 B3A cBA^G A4  | \
w:   | 
ABcd e4 z2a2 g2f2 e3d edcB c4 d4 e4  | 
w:   | 
d2e4d2 z2c'2 b2a2 g3f gffe e8 e2fg  | \
w:   | 
fed2 c2d2 A8 A3B c3d e4 d2e4d2  | 
w:   | 
e3d c2d2 c2d2 e2fe e4 ABcd e4 e2f2 g2a2  | \
w:   | 
g2f2 e2d2 e3d edcB ccBA GGAB c4 c2e2 d2f2  | 
w:   | 
e2d2 c2B2 B3A ^G2A2 B2cB B4 d4 z2f2 e2d2  | \
w:   | 
c3B A4 BdcB BAB2 A^GA4AB cde4d2 e4  | 
w:   | 
d2e3dc2 d2c2 d2e2 fee4AB cde4e2 f2g2  | \
w:   | 
a2g2 f2e2 d2e3ded cBcc BAGG ABc4c2 e2d2  | 
w:   | 
f2e2 d2c2 B2B3A^G2 A2B2 cBB4d4z2 f2e2  | \
w:   | 
d2c3BA4Bd cBBA B2A^G A8 z4 |
w:   | 


